src/assets/metronic/worbby/global/img/icon-travel.svg

<?xml version="1.0" encoding="UTF-8"?>
<svg width="45px" height="45px" viewBox="0 0 45 45" version="1.1" xmlns="http://www.w3.org/2000/svg" xmlns:xlink="http://www.w3.org/1999/xlink">
    <!-- Generator: Sketch 41.2 (35397) - http://www.bohemiancoding.com/sketch -->
    <title>icon-travel</title>
    <desc>Created with Sketch.</desc>
    <defs>
        <linearGradient x1="0%" y1="49.9979293%" x2="99.9874969%" y2="49.9979293%" id="linearGradient-1">
            <stop stop-color="#FFB247" offset="0%"></stop>
            <stop stop-color="#FFCB33" offset="100%"></stop>
        </linearGradient>
    </defs>
    <g id="Worbby-Needor" stroke="none" stroke-width="1" fill="none" fill-rule="evenodd">
        <g id="Categories-List-All" transform="translate(-20.000000, -1141.000000)">
            <g id="icon-travel" transform="translate(20.000000, 1141.000000)">
                <g>
                    <path d="M7.5,18.75 C7.5,8.39475 15.89475,0 26.25,0 C36.60525,0 45,8.39475 45,18.75 C45,29.10525 36.60525,37.5 26.25,37.5 C15.89475,37.5 7.5,29.10525 7.5,18.75" id="Fill-1" fill="url(#linearGradient-1)"></path>
                    <path d="M14.688375,24.145725 L15.076875,24.532725 C14.804625,25.078725 14.647125,25.692225 14.647125,26.341725 C14.647125,28.596225 16.487625,30.429225 18.750375,30.429225 C19.401375,30.429225 20.015625,30.273225 20.563125,30.003225 L20.947125,30.386475 L11.088375,33.959475 L14.688375,24.145725 Z M26.411625,18.723975 L22.811625,28.537725 L22.423125,28.150725 C22.695375,27.604725 22.852875,26.991975 22.852875,26.341725 C22.852875,24.087975 21.012375,22.254225 18.750375,22.254225 C18.098625,22.254225 17.484375,22.410225 16.936875,22.680225 L16.552875,22.297725 L26.411625,18.723975 Z M18.750375,27.804225 C18.663375,27.804225 18.580125,27.793725 18.497625,27.779475 C18.421125,27.764475 18.345375,27.744225 18.272625,27.719475 C17.840625,27.571725 17.501625,27.234225 17.355375,26.805225 C17.331375,26.734725 17.311875,26.661975 17.297625,26.587725 C17.283375,26.507475 17.272125,26.426475 17.272125,26.341725 C17.272125,25.535475 17.935125,24.879225 18.750375,24.879225 C18.836625,24.879225 18.919875,24.889725 19.002375,24.903975 C19.078875,24.918975 19.154625,24.939225 19.227375,24.963975 C19.659375,25.111725 19.999125,25.449225 20.144625,25.878975 C20.168625,25.949475 20.188125,26.021475 20.202375,26.095725 C20.216625,26.175975 20.227875,26.257725 20.227875,26.341725 C20.227875,27.147975 19.564875,27.804225 18.750375,27.804225 L18.750375,27.804225 Z M23.784375,32.150475 C23.810625,32.140725 23.831625,32.124225 23.857125,32.113725 C23.908125,32.091225 23.956125,32.066475 24.004125,32.037225 C24.050625,32.010225 24.094875,31.980975 24.137625,31.947975 C24.180375,31.914225 24.220125,31.878225 24.259125,31.839225 C24.298125,31.801725 24.333375,31.761975 24.366375,31.719225 C24.400125,31.676475 24.429375,31.631475 24.457875,31.584975 C24.485625,31.537725 24.511125,31.489725 24.533625,31.438725 C24.544125,31.413975 24.560625,31.393725 24.569625,31.368225 L29.846625,16.981725 C30.022125,16.502475 29.904375,15.964725 29.544375,15.603225 C29.184375,15.241725 28.645875,15.120975 28.167375,15.295725 L13.715625,20.533725 C13.689375,20.542725 13.668375,20.559225 13.642875,20.570475 C13.591875,20.592975 13.543875,20.617725 13.495875,20.646225 C13.449375,20.673975 13.405125,20.703225 13.362375,20.736225 C13.319625,20.769975 13.279875,20.805225 13.240875,20.844225 C13.202625,20.882475 13.166625,20.922225 13.133625,20.964975 C13.099875,21.006975 13.070625,21.051975 13.042875,21.098475 C13.014375,21.145725 12.988875,21.194475 12.966375,21.245475 C12.955875,21.270225 12.939375,21.290475 12.930375,21.315975 L7.653375,35.702475 C7.477875,36.180975 7.595625,36.718725 7.955625,37.080225 C8.206125,37.332225 8.542875,37.466475 8.886375,37.466475 C9.035625,37.466475 9.187125,37.440975 9.332625,37.388475 L23.784375,32.150475 Z M2.692125,27.654225 L4.102875,27.654225 C4.827375,27.654225 5.415375,27.066975 5.415375,26.341725 C5.415375,25.617225 4.827375,25.029225 4.102875,25.029225 L2.692125,25.029225 C2.974125,21.591975 4.345125,18.460725 6.469875,15.976725 L7.228125,16.731225 C7.483875,16.986225 7.818375,17.113725 8.153625,17.113725 C8.490375,17.113725 8.827875,16.984725 9.083625,16.725975 C9.595125,16.212225 9.592875,15.381225 9.079125,14.870475 L8.330625,14.126475 C10.830375,12.015975 13.980375,10.653975 17.437875,10.374975 L17.437875,11.771475 C17.437875,12.495975 18.025125,13.083975 18.750375,13.083975 C19.474875,13.083975 20.062875,12.495975 20.062875,11.771475 L20.062875,10.374975 C27.904125,11.007225 34.168125,17.233725 34.807875,25.029225 L33.397125,25.029225 C32.672625,25.029225 32.084625,25.617225 32.084625,26.341725 C32.084625,27.066975 32.672625,27.654225 33.397125,27.654225 L34.807875,27.654225 C34.525875,31.091475 33.154875,34.222725 31.030875,36.706725 L30.272625,35.952225 C29.757375,35.440725 28.926375,35.442225 28.416375,35.956725 C27.904875,36.471225 27.907125,37.302225 28.420875,37.812975 L29.169375,38.556975 C26.669625,40.668225 23.519625,42.030225 20.062875,42.308475 L20.062875,40.911975 C20.062875,40.187475 19.474875,39.599475 18.750375,39.599475 C18.025125,39.599475 17.437875,40.187475 17.437875,40.911975 L17.437875,42.308475 C9.595875,41.676225 3.331875,35.450475 2.692125,27.654225 L2.692125,27.654225 Z M32.080125,39.447225 C35.428875,36.075225 37.500375,31.445475 37.500375,26.341725 C37.500375,16.053975 29.089125,7.683975 18.750375,7.683975 C13.623375,7.683975 8.971875,9.743475 5.584125,13.073475 C5.552625,13.098975 5.518875,13.121475 5.488875,13.151475 C5.463375,13.176975 5.444625,13.207725 5.421375,13.234725 C2.071875,16.606725 0.000375,21.237975 0.000375,26.341725 C0.000375,36.630225 8.410875,45.000225 18.750375,45.000225 C23.876625,45.000225 28.527375,42.940725 31.915875,39.611475 C31.947375,39.584475 31.981125,39.562725 32.011125,39.532725 C32.037375,39.505725 32.056875,39.474975 32.080125,39.447225 L32.080125,39.447225 Z" id="Fill-3" fill="#1E2225"></path>
                </g>
            </g>
        </g>
    </g>
</svg>

<svg xmlns="http://www.w3.org/2000/svg" width="45" height="45"><defs><linearGradient id="a" x1="0%" x2="99.9875%" y1="49.9979%" y2="49.9979%"><stop stop-color="#FFB247" offset="0%"/><stop stop-color="#FFCB33" offset="100%"/></linearGradient></defs><g fill="none" fill-rule="evenodd"><path fill="url(#a)" d="M7.5 18.75C7.5 8.3948 15.8948 0 26.25 0S45 8.3948 45 18.75c0 10.3553-8.3948 18.75-18.75 18.75S7.5 29.1053 7.5 18.75"/><path fill="#1E2225" d="M14.6884 24.1457l.3885.387c-.2724.546-.43 1.1595-.43 1.809 0 2.2545 1.8406 4.0875 4.1034 4.0875.651 0 1.2652-.156 1.8127-.426l.384.3833-9.8586 3.573 3.6-9.8138zm11.7232-5.4217l-3.6 9.8137-.3885-.387c.2724-.546.43-1.1587.43-1.809 0-2.2537-1.8406-4.0875-4.1026-4.0875-.6518 0-1.266.156-1.8135.426l-.384-.3825 9.8586-3.5737zm-7.6612 9.0802c-.087 0-.1703-.0105-.2528-.0247-.0765-.015-.1522-.0353-.225-.06-.432-.1478-.771-.4853-.9172-.9143-.024-.0705-.0435-.1432-.0578-.2175-.0142-.0802-.0255-.1612-.0255-.246 0-.8062.663-1.4625 1.4784-1.4625.0862 0 .1695.0105.252.0248.0765.015.1522.0352.225.06.432.1477.7717.4852.9172.915.024.0705.0435.1425.0578.2167.0142.0803.0255.162.0255.246 0 .8063-.663 1.4625-1.4776 1.4625zm5.034 4.3463c.0262-.0098.0472-.0263.0727-.0368.051-.0225.099-.0472.147-.0765.0466-.027.091-.0562.1336-.0892.0428-.0338.0825-.0698.1215-.1088.039-.0375.0744-.0772.1074-.12.0337-.0427.063-.0877.0915-.1342.0276-.0473.053-.0953.0756-.1463.0105-.0247.027-.045.036-.0705l5.277-14.3865c.1755-.4792.0578-1.017-.3022-1.3785-.36-.3615-.8985-.4822-1.377-.3075l-14.4518 5.238c-.0262.009-.0472.0255-.0727.0368-.051.0225-.099.0472-.147.0757-.0466.0278-.091.057-.1336.09-.0428.0338-.0825.069-.1215.108-.0384.0383-.0744.078-.1074.1208-.0337.042-.063.087-.0907.1335-.0286.0472-.054.096-.0766.147-.0105.0247-.027.045-.036.0705l-5.277 14.3865c-.1755.4785-.0578 1.0162.3022 1.3777.2505.252.5873.3863.9308.3863.1492 0 .3007-.0255.4462-.078l14.4518-5.238zM2.692 27.6542h1.411c.7244 0 1.3124-.5872 1.3124-1.3125 0-.7245-.588-1.3125-1.3125-1.3125H2.692c.282-3.4372 1.653-6.5685 3.778-9.0525l.758.7545c.256.255.5904.3825.9256.3825.3368 0 .6743-.129.93-.3877.5115-.5138.5093-1.3448-.0045-1.8555l-.7484-.744c2.4998-2.1105 5.6498-3.4725 9.1073-3.7515v1.3965c0 .7245.587 1.3125 1.3124 1.3125.7245 0 1.3125-.588 1.3125-1.3125V10.375c7.841.6322 14.105 6.8587 14.745 14.6542h-1.411c-.7244 0-1.3124.588-1.3124 1.3125 0 .7253.588 1.3125 1.3125 1.3125h1.411c-.282 3.4373-1.653 6.5685-3.777 9.0525l-.7584-.7545c-.5152-.5115-1.3462-.51-1.8562.0045-.5115.5145-.5093 1.3455.0045 1.8563l.7484.744c-2.4998 2.1112-5.6498 3.4732-9.1065 3.7515V40.912c0-.7245-.588-1.3125-1.3126-1.3125-.7253 0-1.3125.588-1.3125 1.3125v1.3965c-7.842-.6323-14.106-6.858-14.746-14.6543zm29.388 11.793c3.349-3.372 5.4204-8.0017 5.4204-13.1055 0-10.2877-8.4113-18.6577-18.75-18.6577-5.127 0-9.7785 2.0595-13.1663 5.3895-.0314.0255-.065.048-.095.078-.0256.0255-.0444.0562-.0676.0832-3.3495 3.372-5.421 8.0033-5.421 13.107 0 10.2885 8.4105 18.6585 18.75 18.6585 5.1262 0 9.777-2.0595 13.1655-5.3887.0314-.027.065-.0488.095-.0788.0264-.027.046-.0577.069-.0855z"/></g></svg>
